X:1
T:Marvelous Toy
M:2/2
L:1/4
K:D
 A| D D D F| E E/2E/2 E z| D/2 D3/2 D F| E3 A| B B B G| A A A3/2 D/2|\
 E3/2 E/2 E F| E3 A| D D D F| E E E3/2 E/2| D/2 D3/2 F A| G3 G/2G/2|\
 B B d B| A A F D/2D/2| E E F D| E2 A A| D D/2D/2 D F| E E/2E/2 E3/2 F/2|\
 D3/2 D/2 F A| G3 B| B B d B| A A F D/2D/2| E G F C| D3|
